X:1
T:Calvary’s Stream Is Flowing
T:William James Kirkpatrick
T:Calvary’s Stream Is Flowing
T:Public Domain
T:Public Domain
C:William James Kirkpatrick
Z:Public Domain
%%score 1 ( 2 3 )
L:1/8
M:6/8
K:Bb
V:1 treble 
V:2 bass 
V:3 bass 
V:1
 [DF] | [DF]2 [DF] [DB]2 [FA] | [FA]2 [EG] [EG]3 | [EG]2 [EG] [EA]2 [EG] | [EG] [DF]4 [DF] | %5
w: 1.~From|that dear cross where|Je- sus died,|Cal- v’ry’s stream is|flow- ing; From|
w: 2.~Come,|wash the stain of|sin a- way,|Cal- v’ry’s stream is|flow- ing; Come,|
w: 3.~For|ev- ery con- trite,|wound- ed soul,|Cal- v’ry’s stream is|flow- ing; Step|
w: 4.~For|ev- ery wear- y,|ach- ing heart,|Cal- v’ry’s stream is|flow- ing; A|
w: 5.~With|life and peace up-|on its tide,|Cal- v’ry’s stream is|flow- ing; Sweet|
 [DF]2 [DF] [DB]2 [FA] | [FA]2 [EG] [EG]3 | [EG]2 [EG] [EA]2 [Ec] | [Dc] [DB]4 z || %9
w: bleed- ing hands and|feet and side,|Cal- v’ry’s stream is|flow- ing.|
w: while ’tis called sal-|va- tion’s day,|Cal- v’ry’s stream is|flow- ing.|
w: in just now, and|be made whole,|Cal- v’ry’s stream is|flow- ing.|
w: ten- der heal- ing|to im- part,|Cal- v’ry’s stream is|flow- ing.|
w: bless- ings down the|ag- es glide,|Cal- v’ry’s stream is|flow- ing.|
"^Refrain" [Fd]2 [DB] [DF]2 [DB] | [FA] [EG]4 z | [Ge]2 [Gc] [EA]2 [EG] | [EG] [DF]4 z | %13
w: ||||
w: ||||
w: ||||
w: ||||
w: ||||
 [Fd][Fd][DB] [DF]2 [DB] | [FA][EG][EG] [Gc]3 | [Ae]2 [Ec] [EG]2 [EA] | [Dc] [DB]4 |] %17
w: ||||
w: ||||
w: ||||
w: ||||
w: ||||
V:2
 [B,,B,] | [B,,B,]2 [B,,B,] [B,,F,]2 [B,,B,] | [E,B,]2 [E,B,] [E,B,]3 | %3
w: ~|~ ~ ~ ~|~ ~ ~|
 [E,B,]2 [E,B,] [E,B,]2 [E,B,] | [B,,B,] [B,,B,]4 [B,,B,] | [B,,B,]2 [B,,B,] [B,,F,]2 [B,,B,] | %6
w: ~ ~ ~ ~|~ ~ ~|~ ~ ~ ~|
 [E,B,]2 [E,B,] [E,B,]3 | [E,C]2 [E,C] [F,C]2 [F,A,] | [B,,F,] [B,,F,]4 z || %9
w: ~ ~ ~|~ ~ ~ ~|~ ~|
 [B,,B,]2 [B,,B,] [B,,B,]2 [B,,B,] | [E,B,] [E,B,]4 z | [E,B,]2 [E,C] [F,C]2 [F,A,] | %12
w: Cal- v’ry’s stream is|flow- ing,|Cal- v’ry’s stream is|
 [B,,B,] [B,,B,]4 z | [B,,B,][B,,B,][B,,B,] [B,,B,]2 [B,,B,] | [E,B,][E,B,][E,B,] [E,E]3 | %15
w: flow- ing;|Flow- ing so free for|you and for me,|
 [F,C]2 [F,A,] [F,C]2 F, | [B,,F,] [B,,F,]4 |] %17
w: Cal- v’ry’s stream is|ing. *|
V:3
 x | x6 | x6 | x6 | x6 | x6 | x6 | x6 | x6 || x6 | x6 | x6 | x6 | x6 | x6 | x5 F, | x5 |] %17
w: |||||||||||||||flow-||

